X: 34
T:Otero Covelo. Ejercicio 5
M:C
L:1/8
C:Enrique Otero Covelo
K:C
G6 F2 | E2 D2 C2 B,2 | D2 B,2 C4 || B,CDE DCB,C 
| D2 B,2 CDEF | EDCD E2 C2| DEFG FEDE | F2 D2 EFGA
 | GFEF G2 E2 | FGAB AGFG | A2F2 GABc | BAGA B2 G2
FGAB AGFG | A2 F2 EFGA | GFEF G2 E2 | DEFG FEDE 
F2D2 CDEF | EDCD E2C2| B,CDE  DCB,C | D2C2  B,CDE
| DCB,D C4|| B,4 C4||

